X:98
T:Kas a barh 2
C:trad
A:Bretagne
O:France
M:2/4
L:1/8
Q:1/4=110
K:G
G/2B/2A/2G/2 F>G|AA d/2e/2d|G/2B/2A/2G/2 F>G|B/2G/2A/2F/2 G2:|
|dc/2B/2 A>B|c/2d/2c/2B/2 A2|G/2B/2A/2G/2 F>G|AA d2|
dc/2B/2 A>B|c/2d/2c/2B/2 A2|G/2B/2A/2G/2 F>G|B/2G/2A/2F/2 G2||
